X:395
T:Duchess,The. (p)1698.PLFD.395
M:6/4
L:1/8
Q:3/4=80
S:Playford, Dancing Master,9th Ed,extra Supplement(9D),1698
O:England
N:Hmmm, --needs a crumhorn, says I.
H:1698.
Z:Chris Partington.
K:C
B2|(c2A2)c2(B2E2)B2|c2ABcAB2E2B2|cde2c2B2E2^G2|A4a2a4B2|
c3BA2B3A^G2|A3B (A/B/c) B3cd2|c3BA2B3A^G2|A4a2a4B2|
e2cdecg3ag2|d2BcdBf4f2|f2gfe2e2fed2|d3edcd2B2G2|
c3dcdd4c2|c2E2G2G2E2C2|f3edcB2E2B2|c2ABcAB2E2B2|
cBcdec edefge|^fefgaf^g4a2|(e2B2)c2A2E2^G2|A3-A2:|
